packages/core/src/svgs/tokens/branded/ALU.svg

<svg width="24" height="24" viewBox="0 0 24 24" fill="none" xmlns="http://www.w3.org/2000/svg">
<path fill-rule="evenodd" clip-rule="evenodd" d="M12.0016 2C12.4287 2.01419 12.8464 2.13057 13.2193 2.33934C13.5923 2.54813 13.9098 2.84325 14.1453 3.20001L17.8203 9.50004L19.6266 6.41251C19.9765 5.81251 20.7516 5.6 21.3641 5.94376C21.9703 6.28126 22.1765 7.05001 21.8265 7.65001L19.2827 12.0063L21.8265 16.3562C22.1765 16.9625 21.9703 17.7313 21.3641 18.0688C20.7578 18.4125 19.9765 18.1938 19.6266 17.5938L17.8203 14.5062L14.1453 20.8062L14.0515 20.95C13.8077 21.2676 13.4959 21.5268 13.1391 21.7083C12.7822 21.89 12.3893 21.9896 11.989 22C11.6221 21.9965 11.2604 21.9129 10.929 21.7554C10.5976 21.5978 10.3046 21.3699 10.0703 21.0875C9.98454 21.0045 9.91089 20.9099 9.85154 20.8062L9.80152 20.7187C9.75047 20.6394 9.7025 20.5581 9.65772 20.475L8.72028 18.8751L8.13277 17.875L6.17652 14.5001L4.37653 17.5875C4.02653 18.1937 3.25152 18.4 2.63902 18.0625C2.49455 17.9821 2.36764 17.8735 2.26582 17.7433C2.16402 17.6129 2.08934 17.4636 2.04623 17.3039C2.0031 17.1443 1.99243 16.9776 2.0148 16.8137C2.03718 16.65 2.09218 16.4923 2.17653 16.35L4.72027 12.0001L2.17653 7.64375C2.09317 7.50178 2.03898 7.3446 2.01713 7.18143C1.99529 7.01826 2.00622 6.85236 2.04929 6.69346C2.09237 6.53456 2.16671 6.38585 2.26798 6.25605C2.36923 6.12624 2.49538 6.01794 2.63902 5.9375C3.24527 5.59376 4.02653 5.80625 4.37653 6.40626L6.17028 9.50004L8.98278 4.68751L9.65145 3.53751C9.70147 3.43751 9.76404 3.33751 9.83272 3.23126L9.85154 3.20001C9.90156 3.11251 9.96397 3.03125 10.0391 2.95626C10.4515 2.45625 11.0828 2.01875 12.0016 2ZM15.3952 10.3562L16.3577 12.0063L11.9953 19.475L7.63277 12.0063L8.67653 10.2187L12.0516 16.3L15.3952 10.3625V10.3562ZM13.964 7.90625L11.9953 4.53126L10.139 7.71876L12.0516 11.1563L13.964 7.90625Z" fill="url(#paint0_linear_364_11915)"/>
<path d="M16.3581 9.43747C15.8956 9.43747 15.5394 10.0813 15.4019 10.3562L16.3893 12.0001L17.4769 10.9501C17.3331 10.1375 16.9394 9.4188 16.3581 9.42507V9.43747Z" fill="url(#paint1_linear_364_11915)"/>
<path d="M7.64562 9.42507C8.10811 9.4312 8.53936 9.9562 8.67686 10.225L7.6331 12.0063L6.52686 10.9438C6.6706 10.1312 7.06435 9.4188 7.64562 9.42507Z" fill="url(#paint2_linear_364_11915)"/>
<path d="M11.0572 3.88753C11.526 3.90628 11.8697 4.33127 11.9947 4.53128L11.0697 6.10628L9.50098 5.20627C9.9885 4.33127 10.4635 3.86877 11.0509 3.89377L11.0572 3.88753Z" fill="url(#paint3_linear_364_11915)"/>
<path d="M11.0331 20.1125C11.5081 20.0938 11.8706 19.675 11.9956 19.475L10.6082 17.1125L9.05811 17.9875C9.14559 18.1563 9.66432 19.1125 9.75809 19.25C10.1518 19.8313 10.5581 20.1313 11.0331 20.1125Z" fill="url(#paint4_linear_364_11915)"/>
<defs>
<linearGradient id="paint0_linear_364_11915" x1="11.9953" y1="2" x2="11.9953" y2="22" gradientUnits="userSpaceOnUse">
<stop stop-color="#00D1FF"/>
<stop offset="1" stop-color="#EC1EFF"/>
</linearGradient>
<linearGradient id="paint1_linear_364_11915" x1="4.89438" y1="4.96143" x2="12.7785" y2="20.2539" gradientUnits="userSpaceOnUse">
<stop stop-color="#4B7DDF"/>
<stop offset="1" stop-color="#717BFF"/>
</linearGradient>
<linearGradient id="paint2_linear_364_11915" x1="18.51" y1="4.90584" x2="9.00334" y2="18.9617" gradientUnits="userSpaceOnUse">
<stop stop-color="#4B7DDF"/>
<stop offset="1" stop-color="#6F7CFF"/>
</linearGradient>
<linearGradient id="paint3_linear_364_11915" x1="17.687" y1="2.00002" x2="6.97425" y2="16.973" gradientUnits="userSpaceOnUse">
<stop stop-color="#08A9D8"/>
<stop offset="1" stop-color="#2BB0FF"/>
</linearGradient>
<linearGradient id="paint4_linear_364_11915" x1="11.3646" y1="19.9936" x2="9.93951" y2="17.4437" gradientUnits="userSpaceOnUse">
<stop stop-color="#A526CA"/>
<stop offset="1" stop-color="#B746FF"/>
</linearGradient>
</defs>
</svg>

<svg xmlns="http://www.w3.org/2000/svg" width="24" height="24" fill="none" viewBox="0 0 24 24">
    <path fill="url(#ALU__a)" fill-rule="evenodd" d="M12.002 2a2.68 2.68 0 0 1 2.143 1.2l3.675 6.3 1.807-3.087c.35-.6 1.125-.813 1.737-.47.606.338.813 1.107.462 1.707l-2.543 4.356 2.543 4.35c.35.606.144 1.375-.462 1.713a1.29 1.29 0 0 1-1.737-.475l-1.807-3.088-3.675 6.3-.093.144A2.69 2.69 0 0 1 11.989 22a2.53 2.53 0 0 1-1.919-.913 1.3 1.3 0 0 1-.218-.28l-.05-.088a4 4 0 0 1-.144-.244l-.938-1.6-.587-1L6.177 14.5l-1.8 3.087a1.29 1.29 0 0 1-1.738.476 1.24 1.24 0 0 1-.462-1.713L4.72 12 2.177 7.644a1.237 1.237 0 0 1 .462-1.707 1.287 1.287 0 0 1 1.738.47L6.17 9.5l2.813-4.812.668-1.15q.077-.148.182-.307l.019-.031a1.2 1.2 0 0 1 .187-.244A2.54 2.54 0 0 1 12.002 2m3.393 8.356.963 1.65-4.363 7.469-4.362-7.469 1.044-1.787 3.375 6.081 3.343-5.937zm-1.431-2.45-1.969-3.375L10.14 7.72l1.913 3.437z" clip-rule="evenodd"/>
    <path fill="url(#ALU__b)" d="M16.358 9.437c-.462 0-.819.644-.956.92L16.389 12l1.088-1.05c-.144-.812-.538-1.531-1.119-1.525z"/>
    <path fill="url(#ALU__c)" d="M7.646 9.425c.462.006.893.531 1.03.8l-1.043 1.781-1.106-1.062c.144-.813.537-1.525 1.119-1.519"/>
    <path fill="url(#ALU__d)" d="M11.057 3.888c.469.018.813.443.938.643l-.925 1.575-1.569-.9c.488-.875.963-1.337 1.55-1.312z"/>
    <path fill="url(#ALU__e)" d="M11.033 20.113c.475-.02.838-.438.963-.638l-1.388-2.363-1.55.876c.088.168.606 1.125.7 1.262.394.581.8.881 1.275.863"/>
    <defs>
        <linearGradient id="ALU__a" x1="11.995" x2="11.995" y1="2" y2="22" gradientUnits="userSpaceOnUse">
            <stop stop-color="#00D1FF"/>
            <stop offset="1" stop-color="#EC1EFF"/>
        </linearGradient>
        <linearGradient id="ALU__b" x1="4.894" x2="12.778" y1="4.961" y2="20.254" gradientUnits="userSpaceOnUse">
            <stop stop-color="#4B7DDF"/>
            <stop offset="1" stop-color="#717BFF"/>
        </linearGradient>
        <linearGradient id="ALU__c" x1="18.51" x2="9.003" y1="4.906" y2="18.962" gradientUnits="userSpaceOnUse">
            <stop stop-color="#4B7DDF"/>
            <stop offset="1" stop-color="#6F7CFF"/>
        </linearGradient>
        <linearGradient id="ALU__d" x1="17.687" x2="6.974" y1="2" y2="16.973" gradientUnits="userSpaceOnUse">
            <stop stop-color="#08A9D8"/>
            <stop offset="1" stop-color="#2BB0FF"/>
        </linearGradient>
        <linearGradient id="ALU__e" x1="11.365" x2="9.94" y1="19.994" y2="17.444" gradientUnits="userSpaceOnUse">
            <stop stop-color="#A526CA"/>
            <stop offset="1" stop-color="#B746FF"/>
        </linearGradient>
    </defs>
</svg>
